src/assets/filled/ProgrammingArrows.svg

<svg width="24" height="24" viewBox="0 0 24 24"  xmlns="http://www.w3.org/2000/svg">
<path d="M19.73 16.0997C19.73 16.0697 19.75 16.0397 19.75 15.9997V6.49969C19.75 4.97969 18.52 3.74969 17 3.74969H13.07L14.48 2.57969C14.8 2.30969 14.84 1.83969 14.58 1.51969C14.31 1.19969 13.84 1.15969 13.52 1.41969L10.52 3.91969C10.35 4.05969 10.25 4.26969 10.25 4.49969C10.25 4.72969 10.35 4.92969 10.52 5.07969L13.52 7.57969C13.66 7.69969 13.83 7.74969 14 7.74969C14.21 7.74969 14.43 7.65969 14.58 7.47969C14.85 7.15969 14.8 6.68969 14.48 6.41969L13.07 5.24969H17C17.69 5.24969 18.25 5.80969 18.25 6.49969V15.9997C18.25 16.0397 18.27 16.0697 18.27 16.0997C16.97 16.4297 16 17.5997 16 18.9997C16 20.6597 17.34 21.9997 19 21.9997C20.66 21.9997 22 20.6597 22 18.9997C22 17.5997 21.03 16.4297 19.73 16.0997Z" />
<path d="M13.48 18.92L10.48 16.42C10.16 16.15 9.69 16.2 9.42 16.52C9.15 16.84 9.2 17.31 9.52 17.58L10.93 18.75H7C6.31 18.75 5.75 18.19 5.75 17.5V8C5.75 7.96 5.73 7.93 5.73 7.9C7.03 7.57 8 6.4 8 5C8 3.34 6.66 2 5 2C3.34 2 2 3.34 2 5C2 6.4 2.97 7.57 4.27 7.9C4.27 7.93 4.25 7.96 4.25 8V17.5C4.25 19.02 5.48 20.25 7 20.25H10.93L9.52 21.42C9.2 21.69 9.16 22.16 9.42 22.48C9.57 22.66 9.78 22.75 10 22.75C10.17 22.75 10.34 22.69 10.48 22.58L13.48 20.08C13.65 19.94 13.75 19.73 13.75 19.5C13.75 19.27 13.65 19.07 13.48 18.92Z" />
</svg>

<?xml version="1.0" encoding="UTF-8"?>
<svg width="24" height="24" viewBox="0 0 24 24" xmlns="http://www.w3.org/2000/svg">
 <path d="m19.73 16.1c0-0.03 0.02-0.06 0.02-0.1v-9.5c0-1.52-1.23-2.75-2.75-2.75h-3.93l1.41-1.17c0.32-0.27 0.36-0.74 0.1-1.06-0.27-0.32-0.74-0.36-1.06-0.1l-3 2.5c-0.17 0.14-0.27 0.35-0.27 0.58s0.1 0.43 0.27 0.58l3 2.5c0.14 0.12 0.31 0.17 0.48 0.17 0.21 0 0.43-0.09 0.58-0.27 0.27-0.32 0.22-0.79-0.1-1.06l-1.41-1.17h3.93c0.69 0 1.25 0.56 1.25 1.25v9.5c0 0.04 0.02 0.07 0.02 0.1-1.3 0.33-2.27 1.5-2.27 2.9 0 1.66 1.34 3 3 3s3-1.34 3-3c0-1.4-0.97-2.57-2.27-2.9z"/>
 <path d="m13.48 18.92-3-2.5c-0.32-0.27-0.79-0.22-1.06 0.1s-0.22 0.79 0.1 1.06l1.41 1.17h-3.93c-0.69 0-1.25-0.56-1.25-1.25v-9.5c0-0.04-0.02-0.07-0.02-0.1 1.3-0.33 2.27-1.5 2.27-2.9 0-1.66-1.34-3-3-3s-3 1.34-3 3c0 1.4 0.97 2.57 2.27 2.9 0 0.03-0.02 0.06-0.02 0.1v9.5c0 1.52 1.23 2.75 2.75 2.75h3.93l-1.41 1.17c-0.32 0.27-0.36 0.74-0.1 1.06 0.15 0.18 0.36 0.27 0.58 0.27 0.17 0 0.34-0.06 0.48-0.17l3-2.5c0.17-0.14 0.27-0.35 0.27-0.58s-0.1-0.43-0.27-0.58z"/>
</svg>
